src/assets/images/BadgeApple.svg

<svg fill="none" height="40" viewBox="0 0 119 40" width="119" xmlns="http://www.w3.org/2000/svg"><rect fill="#313ebd" height="40" rx="5" width="119"/><path clip-rule="evenodd" d="m41.9736 26.4087h-4.7926l-1.151 3.4831h-2.03l4.5396-12.8867h2.109l4.5395 12.8867h-2.0645zm-4.2963-1.6073h3.799l-1.8728-5.6529h-.0524zm17.3147.3932c0 2.9197-1.5248 4.7955-3.8257 4.7955-1.1893.0638-2.3095-.5747-2.8842-1.6438h-.0436v4.6537h-1.8816v-12.5037h1.8213v1.5627h.0346c.6003-1.0624 1.7218-1.7005 2.9189-1.661 2.3266 0 3.8603 1.885 3.8603 4.7966zm-1.9341 0c0-1.9022-.9591-3.1528-2.4225-3.1528-1.4377 0-2.4048 1.2769-2.4048 3.1528 0 1.8931.9671 3.1609 2.4048 3.1609 1.4634 0 2.4225-1.2415 2.4225-3.1609zm12.0236 0c0 2.9197-1.5247 4.7955-3.8256 4.7955-1.1893.0638-2.3096-.5747-2.8843-1.6438h-.0435v4.6537h-1.8817v-12.5037h1.8214v1.5627h.0346c.6002-1.0624 1.7217-1.7005 2.9189-1.661 2.3266 0 3.8602 1.885 3.8602 4.7966zm-1.9341 0c0-1.9022-.9591-3.1528-2.4225-3.1528-1.4377 0-2.4047 1.2769-2.4047 3.1528 0 1.8931.967 3.1609 2.4047 3.1609 1.4634 0 2.4225-1.2415 2.4225-3.1609zm8.6025 1.1067c.1394 1.2779 1.3507 2.117 3.0059 2.117 1.586 0 2.7271-.8392 2.7271-1.9914 0-1.0003-.6882-1.5992-2.3178-2.0097l-1.6295-.4023c-2.3088-.5716-3.3806-1.6782-3.3806-3.474 0-2.2235 1.8905-3.7507 4.5751-3.7507 2.6568 0 4.4782 1.5272 4.5395 3.7507h-1.8995c-.1137-1.2861-1.1509-2.0623-2.6667-2.0623s-2.5531.7854-2.5531 1.9285c0 .9111.6625 1.4472 2.2831 1.8576l1.3853.3486c2.5797.6253 3.6516 1.6874 3.6516 3.5723 0 2.411-1.8738 3.921-4.854 3.921-2.7883 0-4.671-1.4746-4.7926-3.8054zm11.7813-8.0284v2.2234h1.7433v1.5273h-1.7433v5.1796c0 .8047.3491 1.1796 1.1154 1.1796.2069-.0037.4136-.0186.619-.0446v1.5181c-.3445.066-.6947.0959-1.0452.0892-1.8559 0-2.5797-.7145-2.5797-2.5366v-5.3853h-1.3329v-1.5273h1.3329v-2.2234zm2.7529 6.9217c0-2.9562 1.6987-4.8138 4.3477-4.8138 2.6578 0 4.3486 1.8576 4.3486 4.8138 0 2.9643-1.6819 4.8138-4.3486 4.8138-2.6658 0-4.3477-1.8495-4.3477-4.8138zm6.7791 0c0-2.0279-.9067-3.2247-2.4314-3.2247-1.5248 0-2.4305 1.2059-2.4305 3.2247 0 2.036.9057 3.2237 2.4305 3.2237 1.5247 0 2.4314-1.1877 2.4314-3.2237zm3.4686-4.6983h1.7946v1.5992h.0436c.2503-1.0295 1.1706-1.738 2.205-1.6975.217-.0008.433.0234.645.072v1.8039c-.274-.0858-.56-.1251-.846-.1166-.553-.023-1.0883.203-1.4653.6186s-.5579.9793-.4952 1.5431v5.5728h-1.8817zm13.3632 6.636c-.253 1.7056-1.874 2.8761-3.947 2.8761-2.667 0-4.322-1.8313-4.322-4.7692 0-2.9471 1.664-4.8584 4.243-4.8584 2.536 0 4.131 1.7857 4.131 4.6344v.6608h-6.475v.1165c-.06.6995.176 1.3919.648 1.901.471.5092 1.134.7861 1.819.7603.913.0877 1.774-.4498 2.117-1.3216zm-6.361-2.8042h4.583c.035-.6285-.189-1.2432-.616-1.6958-.426-.4527-1.018-.7023-1.632-.6888-.619-.0038-1.214.246-1.652.6938-.439.4478-.684 1.0565-.683 1.6908zm-66.0925-17.023c.7988-.05875 1.5813.25274 2.1319.84875.5507.596.8116 1.41369.7109 2.22805 0 1.9782-1.0432 3.1153-2.8428 3.1153h-2.1822v-6.1921zm-1.2439 5.3164h1.1391c.5709.035 1.1267-.1956 1.5132-.6276.3866-.432.5626-1.0195.4792-1.5994.0773-.5775-.1012-1.16018-.4868-1.58868-.3855-.4285-.9378-.65798-1.5056-.62568h-1.1391zm5.1466-1.4629c-.0781-.8376.3137-1.64817 1.0113-2.09182.6975-.44365 1.5802-.44365 2.2777 0 .6976.44365 1.0894 1.25422 1.0113 2.09182.0796.8385-.3119 1.6507-1.01 2.0953-.6982.4446-1.5821.4446-2.2802 0-.6982-.4446-1.0897-1.2568-1.0101-2.0953zm3.3748 0c0-1.0129-.444-1.60525-1.2232-1.60525-.7821 0-1.2221.59235-1.2221 1.60525 0 1.0211.44 1.6088 1.2221 1.6088.7792 0 1.2232-.5918 1.2232-1.6088zm6.6416 2.3385h-.9334l-.9423-3.4416h-.0712l-.9383 3.4416h-.9245l-1.2568-4.67292h.9127l.8167 3.56572h.0672l.9374-3.56572h.8632l.9374 3.56572h.0712l.8128-3.56572h.8997zm2.3089-4.67292h.8661v.74233h.0673c.2338-.54655.7802-.88088 1.3605-.83253.4494-.03463.8898.14205 1.1968.48017.307.33811.4473.80095.3813 1.25785v3.025h-.8998v-2.7934c0-.75096-.3184-1.12442-.9838-1.12442-.3048-.01455-.6006.10806-.8099.33567-.2092.22765-.311.53755-.2788.84855v2.7337h-.8998zm5.3058-1.82418h.8998v6.4971h-.8998zm2.1506 4.1586c-.0781-.8376.3138-1.64824 1.0114-2.0919s1.5803-.44366 2.2779 0 1.0895 1.2543 1.0114 2.0919c.0796.8385-.312 1.6507-1.0102 2.0953s-1.5821.4446-2.2803 0-1.0898-1.2568-1.0102-2.0953zm3.3747 0c0-1.0129-.444-1.60525-1.2231-1.60525-.7822 0-1.2221.59235-1.2221 1.60525 0 1.0211.44 1.6088 1.2221 1.6088.7791 0 1.2231-.5918 1.2231-1.6088zm1.8733 1.017c0-.8412.611-1.3261 1.6957-1.395l1.235-.073v-.4033c0-.49354-.3184-.77223-.9334-.77223-.5023 0-.8503.189-.9502.51943h-.8711c.0919-.80268.8286-1.3175 1.8628-1.3175 1.1431 0 1.7878.58321 1.7878 1.5703v3.1928h-.8662v-.6567h-.0712c-.2942.4796-.8174.7599-1.3695.7337-.387.0413-.773-.0872-1.0626-.3537-.2896-.2664-.4556-.646-.4571-1.0448zm2.9307-.3993v-.3907l-1.1134.073c-.6278.0431-.9126.262-.9126.6739 0 .4206.356.6653.8454.6653.2898.0301.5791-.0617.8016-.2542.2226-.1926.3593-.4695.379-.7673zm2.0784-.6177c0-1.47655.7406-2.41194 1.8926-2.41194.5816-.02747 1.1264.29197 1.3981.81982h.0673v-2.56648h.8997v6.4971h-.8622v-.7383h-.0712c-.2922.5235-.8437.8375-1.4317.8153-1.1599 0-1.8926-.9354-1.8926-2.4155zm.9295 0c0 .9912.4559 1.5876 1.2182 1.5876.7584 0 1.2271-.6051 1.2271-1.5835 0-.9739-.4736-1.58756-1.2271-1.58756-.7574 0-1.2182.60046-1.2182 1.58346zm7.051 0c-.0782-.8376.3137-1.64817 1.0113-2.09182.6975-.44365 1.5802-.44365 2.2777 0 .6976.44365 1.0894 1.25422 1.0112 2.09182.0797.8385-.3118 1.6507-1.01 2.0953-.6981.4446-1.582.4446-2.2802 0-.6981-.4446-1.0896-1.2568-1.01-2.0953zm3.3747 0c0-1.0129-.4439-1.60525-1.2231-1.60525-.7821 0-1.2221.59235-1.2221 1.60525 0 1.0211.44 1.6088 1.2221 1.6088.7792 0 1.2231-.5918 1.2231-1.6088zm2.1329-2.33442h.8661v.74233h.0673c.2338-.54655.7802-.88088 1.3605-.83253.4494-.03463.8898.14205 1.1968.48017.307.33811.4473.80095.3813 1.25785v3.025h-.8998v-2.7934c0-.75096-.3183-1.12442-.9838-1.12442-.3048-.01455-.6006.10806-.8098.33567-.2093.22765-.3111.53755-.2788.84855v2.7337h-.8998zm8.9564-1.16341v1.18469h.9878v.7768h-.9878v2.40284c0 .4895.1967.7038.6447.7038.1146-.0004.2292-.0075.3431-.0213v.7682c-.1616.0296-.3253.0454-.4895.0471-1.0006 0-1.3991-.3608-1.3991-1.2617v-2.63898h-.7238v-.7768h.7238v-1.18465zm2.2168-.66077h.8919v2.57513h.0712c.2451-.55134.801-.8861 1.3902-.8371.4468-.02491.8812.15566 1.1848.49255.3037.33688.4446.79502.3854 1.24952v3.017h-.9007v-2.7895c0-.74637-.3392-1.12438-.975-1.12438-.313-.02631-.6214.09033-.8427.31874-.2214.22844-.3331.54534-.3052.86594v2.7292h-.8998zm9.1697 5.2354c-.252.8814-1.084 1.4509-1.975 1.3519-.608.0164-1.192-.2418-1.598-.7063s-.592-1.0882-.508-1.7057c-.081-.6191.104-1.24386.507-1.71225.404-.4684.985-.73439 1.595-.72906 1.268 0 2.034.88831 2.034 2.35571v.3218h-3.22v.0517c-.028.3467.087.6897.318.9446.232.2548.557.3979.896.3941.441.0541.869-.1697 1.085-.5666zm-3.165-1.506h2.303c.023-.3171-.086-.6294-.3-.85996-.213-.23053-.512-.35784-.822-.35055-.315-.00405-.617.12221-.84.35012-.222.22789-.345.53819-.341.86039zm-77.2942 9.406c.0024 2.1771 1.3097 4.1418 3.3202 4.9899-.3866 1.2527-.9695 2.4366-1.7269 3.5078-1.0173 1.5175-2.0838 3.0001-3.7766 3.0275-1.6449.0379-2.1977-.9654-4.0843-.9654-1.9042 0-2.4934.938-4.071 1.0033-1.6122.0595-2.8442-1.6197-3.8984-3.123-2.10712-3.0701-3.74786-8.6519-1.54821-12.45 1.03291-1.8511 2.96421-3.0257 5.08731-3.0941 1.6136-.0331 3.112 1.0868 4.1041 1.0868.9733 0 2.8248-1.3397 4.7347-1.1398 1.8154.0566 3.4976.9637 4.5394 2.4474-1.6439 1.0079-2.6554 2.7853-2.6803 4.7096zm-3.1068-9.1761c-.8955 1.1108-2.2523 1.7506-3.6813 1.7359-.0909-1.3927.377-2.76432 1.3008-3.81274.9354-1.06263 2.238-1.73475 3.6481-1.88246.1101 1.43399-.3446 2.85431-1.2676 3.9593z" fill="#f5f9fc" fill-rule="evenodd"/></svg>

<svg width="119" height="40" viewBox="0 0 119 40" fill="none" xmlns="http://www.w3.org/2000/svg">
<rect width="119" height="40" rx="5" fill="#313EBD"/>
<path fill-rule="evenodd" clip-rule="evenodd" d="M41.9736 26.4087H37.181L36.03 29.8918H34L38.5396 17.0051H40.6486L45.1881 29.8918H43.1236L41.9736 26.4087ZM37.6773 24.8014H41.4763L39.6035 19.1485H39.5511L37.6773 24.8014ZM54.992 25.1946C54.992 28.1143 53.4672 29.9901 51.1663 29.9901C49.977 30.0539 48.8568 29.4154 48.2821 28.3463H48.2385V33H46.3569V20.4963H48.1782V22.059H48.2128C48.8131 20.9966 49.9346 20.3585 51.1317 20.398C53.4583 20.398 54.992 22.283 54.992 25.1946ZM53.0579 25.1946C53.0579 23.2924 52.0988 22.0418 50.6354 22.0418C49.1977 22.0418 48.2306 23.3187 48.2306 25.1946C48.2306 27.0877 49.1977 28.3555 50.6354 28.3555C52.0988 28.3555 53.0579 27.114 53.0579 25.1946ZM65.0815 25.1946C65.0815 28.1143 63.5568 29.9901 61.2559 29.9901C60.0666 30.0539 58.9463 29.4154 58.3716 28.3463H58.3281V33H56.4464V20.4963H58.2678V22.059H58.3024C58.9026 20.9966 60.0241 20.3585 61.2213 20.398C63.5479 20.398 65.0815 22.283 65.0815 25.1946ZM63.1474 25.1946C63.1474 23.2924 62.1883 22.0418 60.7249 22.0418C59.2872 22.0418 58.3202 23.3187 58.3202 25.1946C58.3202 27.0877 59.2872 28.3555 60.7249 28.3555C62.1883 28.3555 63.1474 27.114 63.1474 25.1946ZM71.7499 26.3013C71.8893 27.5792 73.1006 28.4183 74.7558 28.4183C76.3418 28.4183 77.4829 27.5791 77.4829 26.4269C77.4829 25.4266 76.7947 24.8277 75.1651 24.4172L73.5356 24.0149C71.2268 23.4433 70.155 22.3367 70.155 20.5409C70.155 18.3174 72.0455 16.7902 74.7301 16.7902C77.3869 16.7902 79.2083 18.3174 79.2696 20.5409H77.3701C77.2564 19.2548 76.2192 18.4786 74.7034 18.4786C73.1876 18.4786 72.1503 19.264 72.1503 20.4071C72.1503 21.3182 72.8128 21.8543 74.4334 22.2647L75.8187 22.6133C78.3984 23.2386 79.4703 24.3007 79.4703 26.1856C79.4703 28.5966 77.5965 30.1066 74.6163 30.1066C71.828 30.1066 69.9453 28.632 69.8237 26.3012L71.7499 26.3013ZM83.5312 18.2729V20.4963H85.2745V22.0236H83.5312V27.2032C83.5312 28.0079 83.8803 28.3828 84.6466 28.3828C84.8535 28.3791 85.0602 28.3642 85.2656 28.3382V29.8563C84.9211 29.9223 84.5709 29.9522 84.2204 29.9455C82.3645 29.9455 81.6407 29.231 81.6407 27.4089V22.0236H80.3078V20.4963H81.6407V18.2729H83.5312ZM86.2841 25.1946C86.2841 22.2384 87.9828 20.3808 90.6318 20.3808C93.2896 20.3808 94.9804 22.2384 94.9804 25.1946C94.9804 28.1589 93.2985 30.0084 90.6318 30.0084C87.966 30.0084 86.2841 28.1589 86.2841 25.1946ZM93.0632 25.1946C93.0632 23.1667 92.1565 21.9699 90.6318 21.9699C89.107 21.9699 88.2013 23.1758 88.2013 25.1946C88.2013 27.2306 89.107 28.4183 90.6318 28.4183C92.1565 28.4183 93.0632 27.2306 93.0632 25.1946ZM96.5318 20.4963H98.3264V22.0955H98.37C98.6203 21.066 99.5406 20.3575 100.575 20.398C100.792 20.3972 101.008 20.4214 101.22 20.47V22.2739C100.946 22.1881 100.66 22.1488 100.374 22.1573C99.821 22.1343 99.2857 22.3603 98.9087 22.7759C98.5317 23.1915 98.3508 23.7552 98.4135 24.319V29.8918H96.5318L96.5318 20.4963ZM109.895 27.1323C109.642 28.8379 108.021 30.0084 105.948 30.0084C103.281 30.0084 101.626 28.1771 101.626 25.2392C101.626 22.2921 103.29 20.3808 105.869 20.3808C108.405 20.3808 110 22.1665 110 25.0152V25.676H103.525V25.7925C103.465 26.492 103.701 27.1844 104.173 27.6935C104.644 28.2027 105.307 28.4796 105.992 28.4538C106.905 28.5415 107.766 28.004 108.109 27.1322L109.895 27.1323ZM103.534 24.3281L108.117 24.3281C108.152 23.6996 107.928 23.0849 107.501 22.6323C107.075 22.1796 106.483 21.93 105.869 21.9435C105.25 21.9397 104.655 22.1895 104.217 22.6373C103.778 23.0851 103.533 23.6938 103.534 24.3281ZM37.4415 7.3051C38.2403 7.24635 39.0228 7.55784 39.5734 8.15385C40.1241 8.74985 40.385 9.56754 40.2843 10.3819C40.2843 12.3601 39.2411 13.4972 37.4415 13.4972H35.2593V7.3051H37.4415ZM36.1976 12.6215H37.3367C37.9076 12.6565 38.4634 12.4259 38.8499 11.9939C39.2365 11.5619 39.4125 10.9744 39.3291 10.3945C39.4064 9.817 39.2279 9.23432 38.8423 8.80582C38.4568 8.37732 37.9045 8.14784 37.3367 8.18014H36.1976V12.6215ZM41.3442 11.1586C41.2661 10.321 41.6579 9.51043 42.3555 9.06678C43.053 8.62313 43.9357 8.62313 44.6332 9.06678C45.3308 9.51043 45.7226 10.321 45.6445 11.1586C45.7241 11.9971 45.3326 12.8093 44.6345 13.2539C43.9363 13.6985 43.0524 13.6985 42.3543 13.2539C41.6561 12.8093 41.2646 11.9971 41.3442 11.1586ZM44.719 11.1586C44.719 10.1457 44.275 9.55335 43.4958 9.55335C42.7137 9.55335 42.2737 10.1457 42.2737 11.1586C42.2737 12.1797 42.7137 12.7674 43.4958 12.7674C44.275 12.7674 44.719 12.1756 44.719 11.1586ZM51.3606 13.4971H50.4272L49.4849 10.0555H49.4137L48.4754 13.4971H47.5509L46.2941 8.82418H47.2068L48.0235 12.3899H48.0907L49.0281 8.82418H49.8913L50.8287 12.3899H50.8999L51.7127 8.82418H52.6124L51.3606 13.4971ZM53.6695 8.82418H54.5356V9.56651H54.6029C54.8367 9.01996 55.3831 8.68563 55.9634 8.73398C56.4128 8.69935 56.8532 8.87603 57.1602 9.21415C57.4672 9.55226 57.6075 10.0151 57.5415 10.472V13.497H56.6417V10.7036C56.6417 9.95264 56.3233 9.57918 55.6579 9.57918C55.3531 9.56463 55.0573 9.68724 54.848 9.91485C54.6388 10.1425 54.537 10.4524 54.5692 10.7634V13.4971H53.6694L53.6695 8.82418ZM58.9753 7H59.8751V13.4971H58.9753V7ZM61.1259 11.1586C61.0478 10.321 61.4397 9.51036 62.1373 9.0667C62.8349 8.62304 63.7176 8.62304 64.4152 9.0667C65.1128 9.51036 65.5047 10.321 65.4266 11.1586C65.5062 11.9971 65.1146 12.8093 64.4164 13.2539C63.7182 13.6985 62.8343 13.6985 62.1361 13.2539C61.4379 12.8093 61.0463 11.9971 61.1259 11.1586ZM64.5006 11.1586C64.5006 10.1457 64.0566 9.55335 63.2775 9.55335C62.4953 9.55335 62.0554 10.1457 62.0554 11.1586C62.0554 12.1797 62.4954 12.7674 63.2775 12.7674C64.0566 12.7674 64.5006 12.1756 64.5006 11.1586ZM66.3739 12.1756C66.3739 11.3344 66.9849 10.8495 68.0696 10.7806L69.3046 10.7076V10.3043C69.3046 9.81076 68.9862 9.53207 68.3712 9.53207C67.8689 9.53207 67.5209 9.72107 67.421 10.0515H66.5499C66.6418 9.24882 67.3785 8.734 68.4127 8.734C69.5558 8.734 70.2005 9.31721 70.2005 10.3043V13.4971H69.3343V12.8404H69.2631C68.9689 13.32 68.4457 13.6003 67.8936 13.5741C67.5066 13.6154 67.1206 13.4869 66.831 13.2204C66.5414 12.954 66.3754 12.5744 66.3739 12.1756ZM69.3046 11.7763V11.3856L68.1912 11.4586C67.5634 11.5017 67.2786 11.7206 67.2786 12.1325C67.2786 12.5531 67.6346 12.7978 68.124 12.7978C68.4138 12.8279 68.7031 12.7361 68.9256 12.5436C69.1482 12.351 69.2849 12.0741 69.3046 11.7763ZM71.383 11.1586C71.383 9.68205 72.1236 8.74666 73.2756 8.74666C73.8572 8.71919 74.402 9.03863 74.6737 9.56648H74.741V7H75.6407V13.4971H74.7785V12.7588H74.7073C74.4151 13.2823 73.8636 13.5963 73.2756 13.5741C72.1157 13.5741 71.383 12.6387 71.383 11.1586ZM72.3125 11.1586C72.3125 12.1498 72.7684 12.7462 73.5307 12.7462C74.2891 12.7462 74.7578 12.1411 74.7578 11.1627C74.7578 10.1888 74.2842 9.57514 73.5307 9.57514C72.7733 9.57514 72.3125 10.1756 72.3125 11.1586ZM79.3635 11.1586C79.2853 10.321 79.6772 9.51043 80.3748 9.06678C81.0723 8.62313 81.955 8.62313 82.6525 9.06678C83.3501 9.51043 83.7419 10.321 83.6637 11.1586C83.7434 11.9971 83.3519 12.8093 82.6537 13.2539C81.9556 13.6985 81.0717 13.6985 80.3735 13.2539C79.6754 12.8093 79.2839 11.9971 79.3635 11.1586ZM82.7382 11.1586C82.7382 10.1457 82.2943 9.55335 81.5151 9.55335C80.733 9.55335 80.293 10.1457 80.293 11.1586C80.293 12.1797 80.733 12.7674 81.5151 12.7674C82.2943 12.7674 82.7382 12.1756 82.7382 11.1586ZM84.8711 8.82418H85.7372V9.56651H85.8045C86.0383 9.01996 86.5847 8.68563 87.165 8.73398C87.6144 8.69935 88.0548 8.87603 88.3618 9.21415C88.6688 9.55226 88.8091 10.0151 88.7431 10.472V13.497H87.8433V10.7036C87.8433 9.95264 87.525 9.57918 86.8595 9.57918C86.5547 9.56463 86.2589 9.68724 86.0497 9.91485C85.8404 10.1425 85.7386 10.4524 85.7709 10.7634V13.4971H84.8711V8.82418ZM93.8275 7.66077V8.84546H94.8153V9.62226H93.8275V12.0251C93.8275 12.5146 94.0242 12.7289 94.4722 12.7289C94.5868 12.7285 94.7014 12.7214 94.8153 12.7076V13.4758C94.6537 13.5054 94.49 13.5212 94.3258 13.5229C93.3252 13.5229 92.9267 13.1621 92.9267 12.2612V9.62222H92.2029V8.84542H92.9267V7.66077H93.8275ZM96.0443 7H96.9362V9.57513H97.0074C97.2525 9.02379 97.8084 8.68903 98.3976 8.73803C98.8444 8.71312 99.2788 8.89369 99.5824 9.23058C99.8861 9.56746 100.027 10.0256 99.9678 10.4801V13.4971H99.0671V10.7076C99.0671 9.96123 98.7279 9.58322 98.0921 9.58322C97.7791 9.55691 97.4707 9.67355 97.2494 9.90196C97.028 10.1304 96.9163 10.4473 96.9442 10.7679V13.4971H96.0444L96.0443 7ZM105.214 12.2354C104.962 13.1168 104.13 13.6863 103.239 13.5873C102.631 13.6037 102.047 13.3455 101.641 12.881C101.235 12.4165 101.049 11.7928 101.133 11.1753C101.052 10.5562 101.237 9.93144 101.64 9.46305C102.044 8.99465 102.625 8.72866 103.235 8.73399C104.503 8.73399 105.269 9.6223 105.269 11.0897V11.4115H102.049V11.4632C102.021 11.8099 102.136 12.1529 102.367 12.4078C102.599 12.6626 102.924 12.8057 103.263 12.8019C103.704 12.856 104.132 12.6322 104.348 12.2353L105.214 12.2354ZM102.049 10.7294H104.352C104.375 10.4123 104.266 10.1 104.052 9.86944C103.839 9.63891 103.54 9.5116 103.23 9.51889C102.915 9.51484 102.613 9.6411 102.39 9.86901C102.168 10.0969 102.045 10.4072 102.049 10.7294ZM24.7548 20.1354C24.7572 22.3125 26.0645 24.2772 28.075 25.1253C27.6884 26.378 27.1055 27.5619 26.3481 28.6331C25.3308 30.1506 24.2643 31.6332 22.5715 31.6606C20.9266 31.6985 20.3738 30.6952 18.4872 30.6952C16.583 30.6952 15.9938 31.6332 14.4162 31.6985C12.804 31.758 11.572 30.0788 10.5178 28.5755C8.41068 25.5054 6.76994 19.9236 8.96959 16.1255C10.0025 14.2744 11.9338 13.0998 14.0569 13.0314C15.6705 12.9983 17.1689 14.1182 18.161 14.1182C19.1343 14.1182 20.9858 12.7785 22.8957 12.9784C24.7111 13.035 26.3933 13.9421 27.4351 15.4258C25.7912 16.4337 24.7797 18.2111 24.7548 20.1354ZM21.648 10.9593C20.7525 12.0701 19.3957 12.7099 17.9667 12.6952C17.8758 11.3025 18.3437 9.93088 19.2675 8.88246C20.2029 7.81983 21.5055 7.14771 22.9156 7C23.0257 8.43399 22.571 9.85431 21.648 10.9593Z" fill="#F5F9FC"/>
</svg>
